src/ios-keypad-outline.svg

<?xml version="1.0" encoding="utf-8"?>
<!-- Generated by IcoMoon.io -->
<!DOCTYPE svg PUBLIC "-//W3C//DTD SVG 1.1//EN" "http://www.w3.org/Graphics/SVG/1.1/DTD/svg11.dtd">
<svg version="1.1" xmlns="http://www.w3.org/2000/svg" xmlns:xlink="http://www.w3.org/1999/xlink" width="512" height="512" viewBox="0 0 512 512">
<path fill="#000000" d="M394.6 341.2c-29.5 0-53.4 23.9-53.4 53.4s23.9 53.4 53.4 53.4c29.5 0 53.4-23.9 53.4-53.4s-23.9-53.4-53.4-53.4zM394.6 432c-20.6 0-37.4-16.8-37.4-37.4s16.8-37.4 37.4-37.4 37.4 16.8 37.4 37.4c0 20.6-16.8 37.4-37.4 37.4z"></path>
<path fill="#000000" d="M256 341.2c-29.5 0-53.4 23.9-53.4 53.4s23.9 53.4 53.4 53.4c29.5 0 53.4-23.9 53.4-53.4s-23.9-53.4-53.4-53.4zM256 432c-20.6 0-37.4-16.8-37.4-37.4s16.8-37.4 37.4-37.4 37.4 16.8 37.4 37.4c0 20.6-16.8 37.4-37.4 37.4z"></path>
<path fill="#000000" d="M117.4 341.2c-29.5 0-53.4 23.9-53.4 53.4s23.9 53.4 53.4 53.4c29.5 0 53.4-23.9 53.4-53.4s-23.9-53.4-53.4-53.4zM117.4 432c-20.6 0-37.4-16.8-37.4-37.4s16.8-37.4 37.4-37.4 37.4 16.8 37.4 37.4c0 20.6-16.7 37.4-37.4 37.4z"></path>
<path fill="#000000" d="M394.6 202.6c-29.5 0-53.4 23.9-53.4 53.4s23.9 53.4 53.4 53.4c29.5 0 53.4-23.9 53.4-53.4s-23.9-53.4-53.4-53.4zM394.6 293.4c-20.6 0-37.4-16.8-37.4-37.4s16.8-37.4 37.4-37.4 37.4 16.8 37.4 37.4c0 20.6-16.8 37.4-37.4 37.4z"></path>
<path fill="#000000" d="M256 202.6c-29.5 0-53.4 23.9-53.4 53.4s23.9 53.4 53.4 53.4c29.5 0 53.4-23.9 53.4-53.4s-23.9-53.4-53.4-53.4zM256 293.4c-20.6 0-37.4-16.8-37.4-37.4s16.8-37.4 37.4-37.4 37.4 16.8 37.4 37.4c0 20.6-16.8 37.4-37.4 37.4z"></path>
<path fill="#000000" d="M117.4 202.6c-29.5 0-53.4 23.9-53.4 53.4s23.9 53.4 53.4 53.4c29.5 0 53.4-23.9 53.4-53.4s-23.9-53.4-53.4-53.4zM117.4 293.4c-20.6 0-37.4-16.8-37.4-37.4s16.8-37.4 37.4-37.4 37.4 16.8 37.4 37.4c0 20.6-16.7 37.4-37.4 37.4z"></path>
<path fill="#000000" d="M394.6 170.8c29.5 0 53.4-23.9 53.4-53.4s-23.9-53.4-53.4-53.4c-29.5 0-53.4 23.9-53.4 53.4s23.9 53.4 53.4 53.4zM394.6 80c20.6 0 37.4 16.8 37.4 37.4s-16.8 37.4-37.4 37.4-37.4-16.8-37.4-37.4c0-20.6 16.7-37.4 37.4-37.4z"></path>
<path fill="#000000" d="M256 64c-29.5 0-53.4 23.9-53.4 53.4s23.9 53.4 53.4 53.4c29.5 0 53.4-23.9 53.4-53.4s-23.9-53.4-53.4-53.4zM256 154.8c-20.6 0-37.4-16.8-37.4-37.4s16.8-37.4 37.4-37.4 37.4 16.8 37.4 37.4c0 20.6-16.8 37.4-37.4 37.4z"></path>
<path fill="#000000" d="M117.4 64c-29.5 0-53.4 23.9-53.4 53.4s23.9 53.4 53.4 53.4c29.5 0 53.4-23.9 53.4-53.4s-23.9-53.4-53.4-53.4zM117.4 154.8c-20.6 0-37.4-16.8-37.4-37.4s16.8-37.4 37.4-37.4 37.4 16.8 37.4 37.4c0 20.6-16.7 37.4-37.4 37.4z"></path>
</svg>

<?xml version="1.0" encoding="utf-8"?>
<!-- Generator: Adobe Illustrator 16.2.1, SVG Export Plug-In . SVG Version: 6.00 Build 0)  -->
<!DOCTYPE svg PUBLIC "-//W3C//DTD SVG 1.1//EN" "http://www.w3.org/Graphics/SVG/1.1/DTD/svg11.dtd">
<svg version="1.1" id="Layer_1" xmlns="http://www.w3.org/2000/svg" xmlns:xlink="http://www.w3.org/1999/xlink" x="0px" y="0px"
	 width="512px" height="512px" viewBox="0 0 512 512" style="enable-background:new 0 0 512 512;" xml:space="preserve">
<g>
	<path d="M394.6,341.2c-29.5,0-53.4,23.9-53.4,53.4s23.9,53.4,53.4,53.4c29.5,0,53.4-23.9,53.4-53.4S424.1,341.2,394.6,341.2z
		 M394.6,432c-20.6,0-37.4-16.8-37.4-37.4c0-20.6,16.8-37.4,37.4-37.4s37.4,16.8,37.4,37.4C432,415.2,415.2,432,394.6,432z"/>
	<path d="M256,341.2c-29.5,0-53.4,23.9-53.4,53.4S226.5,448,256,448c29.5,0,53.4-23.9,53.4-53.4S285.5,341.2,256,341.2z M256,432
		c-20.6,0-37.4-16.8-37.4-37.4c0-20.6,16.8-37.4,37.4-37.4s37.4,16.8,37.4,37.4C293.4,415.2,276.6,432,256,432z"/>
	<path d="M117.4,341.2c-29.5,0-53.4,23.9-53.4,53.4S87.9,448,117.4,448c29.5,0,53.4-23.9,53.4-53.4S146.9,341.2,117.4,341.2z
		 M117.4,432C96.8,432,80,415.2,80,394.6c0-20.6,16.8-37.4,37.4-37.4s37.4,16.8,37.4,37.4C154.8,415.2,138.1,432,117.4,432z"/>
	<path d="M394.6,202.6c-29.5,0-53.4,23.9-53.4,53.4s23.9,53.4,53.4,53.4c29.5,0,53.4-23.9,53.4-53.4S424.1,202.6,394.6,202.6z
		 M394.6,293.4c-20.6,0-37.4-16.8-37.4-37.4c0-20.6,16.8-37.4,37.4-37.4S432,235.4,432,256C432,276.6,415.2,293.4,394.6,293.4z"/>
	<path d="M256,202.6c-29.5,0-53.4,23.9-53.4,53.4s23.9,53.4,53.4,53.4c29.5,0,53.4-23.9,53.4-53.4S285.5,202.6,256,202.6z
		 M256,293.4c-20.6,0-37.4-16.8-37.4-37.4c0-20.6,16.8-37.4,37.4-37.4s37.4,16.8,37.4,37.4C293.4,276.6,276.6,293.4,256,293.4z"/>
	<path d="M117.4,202.6C87.9,202.6,64,226.5,64,256s23.9,53.4,53.4,53.4c29.5,0,53.4-23.9,53.4-53.4S146.9,202.6,117.4,202.6z
		 M117.4,293.4C96.8,293.4,80,276.6,80,256c0-20.6,16.8-37.4,37.4-37.4s37.4,16.8,37.4,37.4C154.8,276.6,138.1,293.4,117.4,293.4z"
		/>
	<path d="M394.6,170.8c29.5,0,53.4-23.9,53.4-53.4c0-29.5-23.9-53.4-53.4-53.4c-29.5,0-53.4,23.9-53.4,53.4
		C341.2,146.9,365.1,170.8,394.6,170.8z M394.6,80c20.6,0,37.4,16.8,37.4,37.4c0,20.6-16.8,37.4-37.4,37.4s-37.4-16.8-37.4-37.4
		C357.2,96.8,373.9,80,394.6,80z"/>
	<path d="M256,64c-29.5,0-53.4,23.9-53.4,53.4c0,29.5,23.9,53.4,53.4,53.4c29.5,0,53.4-23.9,53.4-53.4C309.4,87.9,285.5,64,256,64z
		 M256,154.8c-20.6,0-37.4-16.8-37.4-37.4c0-20.6,16.8-37.4,37.4-37.4s37.4,16.8,37.4,37.4C293.4,138,276.6,154.8,256,154.8z"/>
	<path d="M117.4,64C87.9,64,64,87.9,64,117.4c0,29.5,23.9,53.4,53.4,53.4c29.5,0,53.4-23.9,53.4-53.4C170.8,87.9,146.9,64,117.4,64z
		 M117.4,154.8C96.8,154.8,80,138,80,117.4C80,96.8,96.8,80,117.4,80s37.4,16.8,37.4,37.4C154.8,138,138.1,154.8,117.4,154.8z"/>
</g>
</svg>
